X:349
T: LUSTIG ISTS MATROSENLEBN
N: E1505
O: Europa, Mitteleuropa, Deutschland, Hessen; Lahn - Gegend
R: Staende -, Seemanns - Lied
M: 4/4
L: 1/16
K: D
 | A,6F,2D,2F,2A,2B,2 | A,4A,3A,A,4z4 |
E6D2C2B,2A,2G,2 | F,4A,3A,D4z4 |
B,6C2D2D2C2B,2 | A,4F,3G,A,4z4 |
B,6C2D2D2C2B,2 | A,4F,3G,A,4z4 |
E,6F,2G,2B,2A,2G,2 | F,4A,3A,D4
F3F | E4z4A8 | D8z8

@@@ Tune index: 5033
